icons/svg/directions.svg

<svg width="24" height="24" viewBox="0 0 24 24" fill="none" xmlns="http://www.w3.org/2000/svg">
<path d="M3.50665 14.0067C2.39841 12.8984 2.39841 11.1016 3.50665 9.99335L9.99335 3.50665C11.1016 2.39841 12.8984 2.39841 14.0067 3.50665L20.4933 9.99335C21.6016 11.1016 21.6016 12.8984 20.4933 14.0067L14.0067 20.4933C12.8984 21.6016 11.1016 21.6016 9.99335 20.4933L3.50665 14.0067Z" stroke="currentColor" stroke-width="1.5" stroke-linecap="round" stroke-linejoin="round"/>
<path d="M14.4591 9.02002L15.854 10.4149C16.0493 10.6102 16.1469 10.8661 16.1469 11.1221M14.4591 13.2241L15.854 11.8291C16.0492 11.6339 16.1469 11.378 16.1469 11.1221M8.6875 15.1533V12.6221C8.6875 11.7936 9.35907 11.1221 10.1875 11.1221H15.5101H16.1469" stroke="currentColor" stroke-width="1.5" stroke-linecap="round" stroke-linejoin="round"/>
</svg>

<svg xmlns="http://www.w3.org/2000/svg" width="24" height="24" fill="none" viewBox="0 0 24 24"><path stroke="currentColor" stroke-linecap="round" stroke-linejoin="round" stroke-width="1.5" d="M3.507 14.007a2.84 2.84 0 0 1 0-4.014l6.486-6.486a2.84 2.84 0 0 1 4.014 0l6.486 6.486a2.84 2.84 0 0 1 0 4.014l-6.486 6.486a2.84 2.84 0 0 1-4.014 0z"/><path stroke="currentColor" stroke-linecap="round" stroke-linejoin="round" stroke-width="1.5" d="m14.46 9.02 1.394 1.395a1 1 0 0 1 .293.707m-1.688 2.102 1.395-1.395a1 1 0 0 0 .293-.707m-7.46 4.031v-2.53a1.5 1.5 0 0 1 1.5-1.5h5.96"/></svg>
